X: 1
T: Kilnamona
M: 4/4
L: 1/8
R: barndance
K: D Major
|: ADFA DEFG | A2 G2 E3 F | G2 E2 B3 B | B2 A2 F4 |
ADFA DEFG | A2 G2 E3 F | G2 E2 B2 A2 | D4 D4 :|
|: f4 fedf | e3 e edBc | dedB A2 FA | B2 (3eee e2 de | 
f3 f fedf | e3 e edBc | dedB A2 (3FGA |[1 B2 (3ddd d4 :|[2 B2 d2 [F4d4] |]
